svgs/ireal_pro.svg

<svg width="192" height="192" viewBox="0 0 192 192" fill="none" xmlns="http://www.w3.org/2000/svg">
<path d="M94.0217 82.8218L136.041 40.269C138.575 37.7123 141.616 37.5899 144.683 40.269C158.681 52.497 167.565 69.5448 169.569 88.0233C171.572 106.502 166.549 125.058 155.497 140.001C144.445 154.945 128.174 165.183 109.919 168.679C91.6635 172.175 72.7614 168.673 56.9701 158.87C41.1788 149.067 29.6549 133.68 24.6896 115.769C19.7242 97.8574 21.6809 78.7335 30.1708 62.199C38.6607 45.6645 53.0619 32.9303 70.5113 26.5282C86.0035 20.8442 102.891 20.5211 118.5 25.5034M94.0217 82.8218L63.3806 114.191C59.6691 117.991 62.3684 124.389 67.6799 124.404C81.6787 124.443 89.4743 124.513 91.9451 124.383C99.5478 124.383 104.109 122.863 108.164 120.329C114.957 116.083 118.757 110.192 119.315 104.616C119.72 100.562 119.315 98.0273 118.301 95.9999C117.49 94.378 116.612 93.2967 116.274 92.9588C113.233 89.9177 109.505 88.4864 108.164 87.8903C104.515 86.2684 97.2153 83.8355 94.0217 82.8218Z" stroke="black" stroke-width="12" stroke-linecap="round" stroke-linejoin="round"/>
</svg>

<svg xmlns="http://www.w3.org/2000/svg" width="192" height="192" fill="none" viewBox="0 0 192 192"><path stroke="#000" stroke-linecap="round" stroke-linejoin="round" stroke-width="12" d="m94.022 82.822 42.019-42.553c2.534-2.557 5.575-2.68 8.642 0A74 74 0 1 1 118.5 25.503M94.022 82.822 63.38 114.19c-3.712 3.8-1.013 10.198 4.299 10.213 13.999.039 21.794.109 24.265-.021 7.603 0 12.164-1.52 16.219-4.054 6.793-4.246 10.593-10.137 11.151-15.713.405-4.054 0-6.589-1.014-8.616-.811-1.622-1.689-2.703-2.027-3.041-3.041-3.041-6.769-4.473-8.11-5.069-3.649-1.622-10.949-4.055-14.142-5.068"/></svg>
